src/images/Roff/Process2.svg

<svg fill="none" height="200" viewBox="0 0 200 200" width="200" xmlns="http://www.w3.org/2000/svg"><rect fill="#b9d053" height="200" rx="20" width="200"/><path d="m82.7016 152.844c0 3.258 2.6658 5.924 5.9241 5.924h23.6963c3.259 0 5.925-2.666 5.925-5.924v-5.925h-35.5454zm17.7724-112.5596c-22.8672 0-41.4691 18.6019-41.4691 41.4692 0 14.0995 7.0497 26.4814 17.7725 34.0044v13.389c0 3.258 2.6659 5.924 5.9242 5.924h35.5454c3.258 0 5.924-2.666 5.924-5.924v-13.389c10.723-7.523 17.772-19.9049 17.772-34.0044 0-22.8673-18.602-41.4692-41.469-41.4692zm16.884 65.7586-5.036 3.554v13.626h-23.6963v-13.626l-5.0355-3.554c-3.9248-2.721-7.1331-6.3513-9.351-10.5808s-3.3796-8.9328-3.386-13.7086c0-16.3507 13.2702-29.6208 29.6208-29.6208 16.351 0 29.621 13.2701 29.621 29.6208 0 9.6564-4.739 18.7204-12.737 24.2894z" fill="#fbfbfb"/></svg>

<svg width="200" height="200" viewBox="0 0 200 200" fill="none" xmlns="http://www.w3.org/2000/svg">
<rect width="200" height="200" rx="20" fill="#B9D053"/>
<path d="M82.7016 152.844C82.7016 156.102 85.3674 158.768 88.6257 158.768H112.322C115.581 158.768 118.247 156.102 118.247 152.844V146.919H82.7016V152.844ZM100.474 40.2844C77.6068 40.2844 59.0049 58.8863 59.0049 81.7536C59.0049 95.8531 66.0546 108.235 76.7774 115.758V129.147C76.7774 132.405 79.4433 135.071 82.7016 135.071H118.247C121.505 135.071 124.171 132.405 124.171 129.147V115.758C134.894 108.235 141.943 95.8531 141.943 81.7536C141.943 58.8863 123.341 40.2844 100.474 40.2844ZM117.358 106.043L112.322 109.597V123.223H88.6257V109.597L83.5902 106.043C79.6654 103.322 76.4571 99.6917 74.2392 95.4622C72.0213 91.2327 70.8596 86.5294 70.8532 81.7536C70.8532 65.4029 84.1234 52.1328 100.474 52.1328C116.825 52.1328 130.095 65.4029 130.095 81.7536C130.095 91.41 125.356 100.474 117.358 106.043Z" fill="#FBFBFB"/>
</svg>
